src/components/Icon/svg-icon/main/view-vertical-split.svg

<svg xmlns="http://www.w3.org/2000/svg" width="24" height="24"><path fill="#677078" d="M3 15h8v-2H3v2zm0 4h8v-2H3v2zm0-8h8V9H3v2zm0-6v2h8V5H3zm10 0h8v14h-8V5z"/></svg>

<svg xmlns="http://www.w3.org/2000/svg" width="24" height="24" viewBox="0 0 24 24">
  <path fill="#677078" d="M3,15 L11,15 L11,13 L3,13 L3,15 Z M3,19 L11,19 L11,17 L3,17 L3,19 Z M3,11 L11,11 L11,9 L3,9 L3,11 Z M3,5 L3,7 L11,7 L11,5 L3,5 Z M13,5 L21,5 L21,19 L13,19 L13,5 Z"/>
</svg>
